X: 1
T: the Shetland Fiddlers' Society
C: Ronnie Cooper
F: http://www.thesession.org/tunes/display/7366 2009-5-31
M: 4/4
L: 1/8
R: strathspey
K: D
(3A,>B,C \
| D2 D2 F>A D>A | (3d>cB (3A>Bc d>A F<D | E2 E>F G>B e>d | (3cde (3B>cd c<A AF |
| D2 D>A F>A D>A | (3d>cB (3A>Bc d>A F<D | G>B E>G F>A DF | (3E>FG (3A>Bc dD Dg ||
| (3fed (3e>dc d2 A2 | d>f (3efg fd df | (3gfe (3fed eB GB | (3cde (3B>cd c<A A>g |
| (3fed (3e>dc d>A F>A | d>f (3efg fd AF | (3GAB (3E>FG (3FGA (3D>EF | (3E>FG (3A>Bc dD |]

%%sep 1 1 500

